assets/color/heavy_snow.svg

<?xml version="1.0" encoding="UTF-8" standalone="no"?>
<svg
   fill="none"
   viewBox="0 0 48 48"
   version="1.1"
   id="svg11"
   sodipodi:docname="heavy_snow.svg"
   inkscape:version="1.4.3 (1:1.4.3+202512261035+0d15f75042)"
   xmlns:inkscape="http://www.inkscape.org/namespaces/inkscape"
   xmlns:sodipodi="http://sodipodi.sourceforge.net/DTD/sodipodi-0.dtd"
   xmlns="http://www.w3.org/2000/svg"
   xmlns:svg="http://www.w3.org/2000/svg">
  <defs
     id="defs11" />
  <sodipodi:namedview
     id="namedview11"
     pagecolor="#ffffff"
     bordercolor="#666666"
     borderopacity="1.0"
     inkscape:showpageshadow="2"
     inkscape:pageopacity="0.0"
     inkscape:pagecheckerboard="0"
     inkscape:deskcolor="#d1d1d1"
     inkscape:zoom="16.625"
     inkscape:cx="24.030075"
     inkscape:cy="24.030075"
     inkscape:window-width="1920"
     inkscape:window-height="1011"
     inkscape:window-x="0"
     inkscape:window-y="32"
     inkscape:window-maximized="1"
     inkscape:current-layer="svg11" />
  <rect
     x="0.0"
     y="0.0"
     width="48.0"
     height="48.0"
     fill="#ff0000"
     stroke="none"
     data-bg="1"
     id="rect1"
     style="fill:#000000;fill-opacity:1" />
  <path
     fill-rule="evenodd"
     d="M47 16.5c0 8.358-6.662 15.171-15 15.488V32H11v-.002l-.143.001C5.413 31.999 1 27.616 1 22.21c0-5.407 4.413-9.79 9.857-9.79 1.889 0 3.654.528 5.154 1.444C17.271 6.559 23.678 1 31.393 1 40.013 1 47 7.939 47 16.5Z"
     clip-rule="evenodd"
     fill="#ff0000"
     stroke="white"
     stroke-width="1px"
     id="path1"
     style="fill:#a9a9a9;fill-opacity:1" />
  <path
     id="path2"
     style="stroke:none;fill:#8ce2ff;fill-opacity:1"
     d="M 39.253906 18 L 39.253906 22.806641 L 34.746094 20.404297 L 34 21.595703 L 38.509766 24 L 34 26.404297 L 34.746094 27.595703 L 39.253906 25.193359 L 39.253906 30 L 40.744141 30 L 40.744141 25.193359 L 45.253906 27.595703 L 46 26.404297 L 41.490234 24 L 46 21.595703 L 45.253906 20.404297 L 40.744141 22.808594 L 40.744141 18 L 39.253906 18 z M 23.253906 22 L 23.253906 26.806641 L 18.746094 24.404297 L 18 25.595703 L 22.509766 28 L 18 30.404297 L 18.746094 31.595703 L 23.253906 29.193359 L 23.253906 34 L 24.746094 34 L 24.746094 29.193359 L 29.253906 31.595703 L 30 30.404297 L 25.490234 28 L 30 25.595703 L 29.253906 24.404297 L 24.746094 26.808594 L 24.746094 22 L 23.253906 22 z M 7.2539062 26 L 7.2539062 30.806641 L 2.7460938 28.404297 L 2 29.595703 L 6.5097656 32 L 2 34.404297 L 2.7460938 35.595703 L 7.2539062 33.193359 L 7.2539062 38 L 8.7441406 38 L 8.7441406 33.193359 L 13.253906 35.595703 L 14 34.404297 L 9.4902344 32 L 14 29.595703 L 13.253906 28.404297 L 8.7441406 30.808594 L 8.7441406 26 L 7.2539062 26 z M 35.378906 34 L 35.378906 38.005859 L 31.621094 36.003906 L 31 36.996094 L 34.757812 39 L 31 41.003906 L 31.621094 41.996094 L 35.378906 39.992188 L 35.378906 44 L 36.621094 44 L 36.621094 39.992188 L 40.378906 41.996094 L 41 41.003906 L 37.242188 39 L 41 36.996094 L 40.378906 36.003906 L 36.621094 38.005859 L 36.621094 34 L 35.378906 34 z M 20.378906 37 L 20.378906 41.005859 L 16.621094 39.003906 L 16 39.996094 L 19.757812 42 L 16 44.003906 L 16.621094 44.996094 L 20.378906 42.992188 L 20.378906 47 L 21.621094 47 L 21.621094 42.992188 L 25.378906 44.996094 L 26 44.003906 L 22.242188 42 L 26 39.996094 L 25.378906 39.003906 L 21.621094 41.005859 L 21.621094 37 L 20.378906 37 z " />
</svg>

<?xml version="1.0" encoding="UTF-8"?>
<svg version="1.1" viewBox="0 0 48 48" xmlns="http://www.w3.org/2000/svg">
<rect width="48" height="48" data-bg="1"/>
<path d="M47 16.5c0 8.358-6.662 15.171-15 15.488V32H11v-.002l-.143.001C5.413 31.999 1 27.616 1 22.21c0-5.407 4.413-9.79 9.857-9.79 1.889 0 3.654.528 5.154 1.444C17.271 6.559 23.678 1 31.393 1 40.013 1 47 7.939 47 16.5Z" clip-rule="evenodd" fill="#a9a9a9" fill-rule="evenodd" stroke="#fff" stroke-width="1px"/>
<path d="m39.254 18v4.8066l-4.5078-2.4023-0.74609 1.1914 4.5098 2.4043-4.5098 2.4043 0.74609 1.1914 4.5078-2.4023v4.8066h1.4902v-4.8066l4.5098 2.4023 0.74609-1.1914-4.5098-2.4043 4.5098-2.4043-0.74609-1.1914-4.5098 2.4043v-4.8086h-1.4902zm-16 4v4.8066l-4.5078-2.4023-0.74609 1.1914 4.5098 2.4043-4.5098 2.4043 0.74609 1.1914 4.5078-2.4023v4.8066h1.4922v-4.8066l4.5078 2.4023 0.74609-1.1914-4.5098-2.4043 4.5098-2.4043-0.74609-1.1914-4.5078 2.4043v-4.8086h-1.4922zm-16 4v4.8066l-4.5078-2.4023-0.74609 1.1914 4.5098 2.4043-4.5098 2.4043 0.74609 1.1914 4.5078-2.4023v4.8066h1.4902v-4.8066l4.5098 2.4023 0.74609-1.1914-4.5098-2.4043 4.5098-2.4043-0.74609-1.1914-4.5098 2.4043v-4.8086h-1.4902zm28.125 8v4.0059l-3.7578-2.002-0.62109 0.99219 3.7578 2.0039-3.7578 2.0039 0.62109 0.99219 3.7578-2.0039v4.0078h1.2422v-4.0078l3.7578 2.0039 0.62109-0.99219-3.7578-2.0039 3.7578-2.0039-0.62109-0.99219-3.7578 2.002v-4.0059h-1.2422zm-15 3v4.0059l-3.7578-2.002-0.62109 0.99219 3.7578 2.0039-3.7578 2.0039 0.62109 0.99219 3.7578-2.0039v4.0078h1.2422v-4.0078l3.7578 2.0039 0.62109-0.99219-3.7578-2.0039 3.7578-2.0039-0.62109-0.99219-3.7578 2.002v-4.0059h-1.2422z" fill="#8ce2ff"/>
</svg>
